!!!OTL: Eins und eins ist Gott allein (4-1), S. 2
!!!id: P0562
**kern
*clefG2
*k[f#]
*G:
{16g
=1
16g
8g
8a
8g
8f#
=2
8e
8e
4d}
=3
{8g
8a
8g
8f#
=4
8e
8e
4d}
=5
{8g
8g
8f#
8g
=6
4a}
4r
=7
{8.g
16a
8g
8f#
=8
8e
8e
4d}
=9
{8.g
16a
8g
8f#
=10
8e
8e
8d
8d}
=11
{8g
8a
8b
8g
=12
4a
4g}
=13
2r
=14
2r
=15
{8.g
16a
8g
8f#
=16
8e
8e
8d
8d}
=17
{8g
8a
8b
16g
16g
=18
4a
4g}
=19
{8.b
16b
8b
8b
=20
8a
8b
4cc}
=21
{8.a
16a
8a
8a
=22
8g
8a
4b}
=23
{4g
8f#
8e
=24
8f#
8g
4a}
=25
{4g
8f#
8e
=26
8f#
8g
4a}
=27
{8.g
16a
8g
8f#
=28
8e
8e
4d}
=29
{8.g
16a
8g
8f#
=30
8e
8e
8.d
16d}
=31
{8g
8a
8b
8g
=32
4a
8g}
8r
==
*-
!!!minrhy: 16
!!!meters: 2/4 ]  ZZ[16
!!!cut: Eins und eins ist Gott allein (4-1), S. 2
!!!reg: Lothringen
!!!trd: PINCK, Louis: Verklingende Weisen Bd 4, Kassel 1939
!!!rhy1:   X_X_X_X_  X_X_X__   (x2)
!!!rhy2: X_X_X_X_  X_X_X__
!!!key: P0562  16  G 2/4 ]  ZZ[16
!!!mod: HEPTATONIK IONISCH]  AMBITUS[7b
!!!kad: -5-52-5-510-514322-5-51
!!!akz: 1-6_1-6_12_1-6_1-6_12__1-6_12_32_21_1-7_1-7_1-6_1-6_12_
!!!fot: 'a__a__b__a__av_c__d__av_cv_e__es_bw_bw_a__av_c__
!!!for: 'a__a__aw_b__bw_a__c__bw_d__b__b__e__e__b__bw_aw_
!!!fok: '\__\__/__\__\__^__?__\__^__/__/__Va_Va_\__\__^__
!! PHRAS[VORWIEGEND VOLLTAKTIG]
!!!fkt: geistliches Lied
!!!bem1: das Lied ist bis zur 7. Strophe aufgezeichnet, wird aber bis zur
!!!bem2: 11. Strophe fortgesetzt; aufgenommen hier: 1. Strophe, sowie Mittelteil
!!!bem3: und Schlu&szlig;
!! LOTH VKL
!! PR[11] 2K[3] 2G[22] 3K[8] 3G[11] 4A[5] 4Ü[0] 5A[0] 6K[0] 6G[0]
!! 7K[0] 7G[0] 8A[0] MEHR[0] SI[49] ABS[37] SR[24] SP[24]
!! ST[7] 2k[3] 2g[22] 3k[3] 3g[5] 4d[3] 4ü[0] 5d[5] 6k[0] 6g[0]
!! 7k[0] 7g[0] 8d[0] mehr[0] si[41] dm[+8] sr[24] sp[16]
!! 1F[5] 2F[38] 3F[28] 4F[3] LF[0] 2P[5] 3P[3] 4P[0] TRI[0] DF[7] AB[39]
!! TF[0] U3K[0] U3[0] U4[0] U4Ü[0] U5[3] U6K[0] U6[0] U7K[0] U7[0]
!! N1[21] N2K[0] N2[16] N3K[0] N3[24] N4[5] N4Ü[0] N5[26] N6K[0] N6[5]
!!!n7k: 0] N7[0] O1[0] O2K[0] O2[0] O3K[0] O3[0] HÖ[0
!!!RNB: symbol: &szlig; = sz ligature (UTF-8: ÃŸ)
